.vercel/output/static/devicon/partytown.svg

<svg xmlns="http://www.w3.org/2000/svg" xml:space="preserve" style="fill-rule:evenodd;clip-rule:evenodd;stroke-linejoin:round;stroke-miterlimit:2" viewBox="0 0 95 99"><path d="m389.333 25.544.066.001c2.407 0 4.387-1.981 4.387-4.387 0-2.407-1.98-4.388-4.387-4.388l-.066.001c-2.381.036-4.321 2.005-4.321 4.387 0 2.381 1.94 4.35 4.321 4.386Zm67.182-3.719h.066c2.406 0 4.387-1.98 4.387-4.387 0-2.406-1.981-4.387-4.387-4.387l-.067.001c-2.381.036-4.32 2.005-4.32 4.386 0 2.382 1.939 4.351 4.321 4.387Z" style="fill:#ff37ad;fill-rule:nonzero" transform="translate(-381)"/><path d="M460.075 78.183h.066c2.406 0 4.387-1.98 4.387-4.387 0-2.406-1.981-4.387-4.387-4.387l-.067.001c-2.381.036-4.32 2.005-4.32 4.386 0 2.382 1.939 4.351 4.321 4.387Zm-52.826-69.41h.066c2.407 0 4.387-1.98 4.387-4.386 0-2.407-1.98-4.387-4.387-4.387h-.066c-2.381.036-4.321 2.005-4.321 4.387 0 2.381 1.94 4.35 4.321 4.386Z" style="fill:#fcc954;fill-rule:nonzero" transform="translate(-381)"/><path d="M433.202 39.236h-.001a3.442 3.442 0 0 1-3.425-3.425c0-.279.035-.557.102-.828.137-.549.249-1.1.333-1.65a9.415 9.415 0 0 1-3.234.705c-1.992.076-3.776-.26-5.296-.996a8.236 8.236 0 0 1-3.561-3.288c-1.635-2.834-1.494-6.562.357-9.498 1.765-2.803 4.754-4.32 7.995-4.072 2.496.195 4.684 1.13 6.436 2.734.319-.9.625-1.864.916-2.89 1.79-6.318 2.381-12.662 2.386-12.726a3.435 3.435 0 0 1 3.719-3.1 3.441 3.441 0 0 1 3.1 3.72c-.025.284-.655 7.048-2.618 13.976-.991 3.498-2.162 6.454-3.489 8.814.098.526.176 1.066.234 1.619.276 2.671.056 5.546-.635 8.313a3.437 3.437 0 0 1-3.319 2.592Zm-7.453-16.232c-.354 0-.978.104-1.48.9-.481.763-.575 1.805-.218 2.424.475.823 1.872.895 2.663.865.898-.034 1.818-.597 2.718-1.623a5.988 5.988 0 0 0-.53-.897c-.743-1.032-1.684-1.56-2.962-1.66-.048-.003-.113-.009-.191-.009Z" style="fill:#2890e9;fill-rule:nonzero" transform="translate(-381)"/><path d="M423.356 48.617c-14.201-11.194-29.044-16.044-33.153-10.832a4.73 4.73 0 0 0-.836 1.67 1.47 1.47 0 0 0-.058.226v.009c-.055.234-.096.47-.123.71l-8.04 47.073c-1.288 7.56 6.196 13.613 13.321 10.775l43.6-17.373c.769-.306 2.661-1.475 3.179-2.12a4.57 4.57 0 0 0 .384-.427c4.108-5.213-4.074-18.514-18.274-29.712v.001Z" style="fill:#f0a420;fill-rule:nonzero" transform="translate(-381)"/><path d="M441.625 78.33c4.111-5.215-4.068-18.518-18.269-29.713-14.201-11.195-29.046-16.043-33.157-10.828-4.111 5.215 4.068 18.518 18.269 29.713 14.201 11.195 29.046 16.043 33.157 10.828Z" style="fill:#fcc954;fill-rule:nonzero" transform="translate(-381)"/><path d="M439.146 75.293c3.373-4.28-4.058-15.764-16.599-25.65-12.541-9.887-25.443-14.432-28.816-10.153-3.374 4.28 4.057 15.764 16.598 25.65 12.541 9.887 25.443 14.433 28.817 10.153Z" style="fill:#f0a420;fill-rule:nonzero" transform="translate(-381)"/><path d="M409.17 92.39c-5.306.026-9.631-2.63-14.873-6.762-6.1-4.81-10.151-10.568-10.471-13.847l-1.729 10.121c.8 2.888 3.527 6.549 7.482 9.667 3.29 2.594 6.609 4.375 10.05 4.622l9.541-3.802v.001Zm-5.308-18.37c-10.164-8.014-16.767-17.21-16.581-22.47l-1.685 9.863c.13 4.698 5.62 12.29 13.43 18.447 6.998 5.517 14.29 9.4 19.874 8.653l9.479-3.778c-7.637.528-15.695-3.758-24.517-10.715Z" style="fill:#2e6ac9;fill-rule:nonzero" transform="translate(-381)"/><path d="M424.902 53.722h.066c2.407 0 4.387-1.98 4.387-4.387 0-2.406-1.98-4.387-4.387-4.387l-.066.001c-2.381.036-4.321 2.005-4.321 4.386 0 2.382 1.94 4.351 4.321 4.387Z" style="fill:#2890e9;fill-rule:nonzero" transform="translate(-381)"/><path d="m448.56 45.187.032-.036c.04-.043.114-.122.221-.23.216-.216.563-.548 1.037-.948a22.376 22.376 0 0 1 4.294-2.826c3.751-1.898 9.336-3.447 16.661-1.758.301.07.61.105.919.105 2.243 0 4.09-1.847 4.09-4.09a4.101 4.101 0 0 0-3.171-3.985c-9.482-2.186-17.021-.187-22.193 2.432a30.56 30.56 0 0 0-5.873 3.87c-.541.454-1.062.932-1.561 1.432-.194.195-.383.394-.567.598l-.044.05-.016.018-.007.008-.003.003c-.001.002-.003.004 3.097 2.67l-3.1-2.666a4.09 4.09 0 0 0-.957 2.629c0 2.243 1.847 4.09 4.09 4.09a4.09 4.09 0 0 0 3.051-1.366Z" style="fill:#ff37ad" transform="translate(-381)"/><path d="M408.048 16.017a4.356 4.356 0 0 0-8.042 2.326c0 .824.234 1.631.674 2.327.158.253 3.399 5.504 4.065 12.695.678 7.306-1.469 14.022-6.39 20.044 1.657 2.106 3.651 4.295 5.929 6.484 3.152-3.642 5.523-7.556 7.081-11.697 1.917-5.095 2.595-10.497 2.017-16.055-.921-8.842-4.768-15.226-5.334-16.124Z" style="fill:#ff37ad;fill-rule:nonzero" transform="translate(-381)"/><path d="M462.571 57.991c2.223.575 3.794 1.202 4.473 1.494a4.4 4.4 0 0 0 5.163-.415 4.398 4.398 0 0 0 1.521-3.246 4.398 4.398 0 0 0-2.985-4.232c-2.081-.924-9.965-4.044-20.387-3.49-7.015.373-13.761 2.316-20.049 5.781-5.954 3.281-11.483 7.93-16.502 13.861a73.59 73.59 0 0 0 7.47 4.669c8.475-9.659 18.253-14.895 29.148-15.587a39.213 39.213 0 0 1 12.148 1.165Z" style="fill:#2890e9;fill-rule:nonzero" transform="translate(-381)"/></svg>

<svg width="100%" height="100%" viewBox="0 0 95 99" version="1.1" xmlns="http://www.w3.org/2000/svg" xmlns:xlink="http://www.w3.org/1999/xlink" xml:space="preserve" xmlns:serif="http://www.serif.com/" style="fill-rule:evenodd;clip-rule:evenodd;stroke-linejoin:round;stroke-miterlimit:2;">
    <g transform="matrix(1,0,0,1,-381,0.0005)">
        <path d="M389.333,25.544C389.355,25.544 389.377,25.545 389.399,25.545C391.806,25.545 393.786,23.564 393.786,21.158C393.786,18.751 391.806,16.77 389.399,16.77C389.377,16.77 389.355,16.771 389.333,16.771C386.952,16.807 385.012,18.776 385.012,21.158C385.012,23.539 386.952,25.508 389.333,25.544ZM456.515,21.825C456.537,21.825 456.559,21.825 456.581,21.825C458.987,21.825 460.968,19.845 460.968,17.438C460.968,15.032 458.987,13.051 456.581,13.051C456.558,13.051 456.536,13.052 456.514,13.052C454.133,13.088 452.194,15.057 452.194,17.438C452.194,19.82 454.133,21.789 456.515,21.825Z" style="fill:rgb(255,55,173);fill-rule:nonzero;"/>
        <path d="M460.075,78.183C460.097,78.183 460.119,78.183 460.141,78.183C462.547,78.183 464.528,76.203 464.528,73.796C464.528,71.39 462.547,69.409 460.141,69.409C460.118,69.409 460.096,69.41 460.074,69.41C457.693,69.446 455.754,71.415 455.754,73.796C455.754,76.178 457.693,78.147 460.075,78.183ZM407.249,8.773C407.271,8.773 407.293,8.773 407.315,8.773C409.722,8.773 411.702,6.793 411.702,4.387C411.702,1.98 409.722,-0 407.315,-0C407.293,-0 407.271,-0 407.249,0C404.868,0.036 402.928,2.005 402.928,4.387C402.928,6.768 404.868,8.737 407.249,8.773Z" style="fill:rgb(252,201,84);fill-rule:nonzero;"/>
        <path d="M433.202,39.236C433.202,39.236 433.202,39.236 433.201,39.236C431.323,39.236 429.776,37.69 429.776,35.811C429.776,35.532 429.811,35.254 429.878,34.983C430.015,34.434 430.127,33.883 430.211,33.333C429.183,33.757 428.088,33.996 426.977,34.038C424.985,34.114 423.201,33.778 421.681,33.042C420.191,32.328 418.95,31.182 418.12,29.754C416.485,26.92 416.626,23.192 418.477,20.256C420.242,17.453 423.231,15.936 426.472,16.184C428.968,16.379 431.156,17.314 432.908,18.918C433.227,18.018 433.533,17.054 433.824,16.028C435.614,9.71 436.205,3.366 436.21,3.302C436.368,1.548 437.857,0.188 439.618,0.188C439.722,0.188 439.826,0.193 439.929,0.202C441.799,0.373 443.199,2.051 443.029,3.922C443.004,4.206 442.374,10.97 440.411,17.898C439.42,21.396 438.249,24.352 436.922,26.712C437.02,27.238 437.098,27.778 437.156,28.331C437.432,31.002 437.212,33.877 436.521,36.644C436.14,38.161 434.766,39.233 433.202,39.236ZM425.749,23.004C425.395,23.004 424.771,23.108 424.269,23.904C423.788,24.667 423.694,25.709 424.051,26.328C424.526,27.151 425.923,27.223 426.714,27.193C427.612,27.159 428.532,26.596 429.432,25.57C429.282,25.256 429.104,24.956 428.902,24.673C428.159,23.641 427.218,23.113 425.94,23.013C425.892,23.01 425.827,23.004 425.749,23.004Z" style="fill:rgb(40,144,233);fill-rule:nonzero;"/>
        <path d="M423.356,48.617C409.155,37.423 394.312,32.573 390.203,37.785C389.816,38.281 389.532,38.848 389.367,39.455C389.342,39.528 389.322,39.605 389.309,39.681L389.309,39.69C389.254,39.924 389.213,40.16 389.186,40.4L381.146,87.473C379.858,95.033 387.342,101.086 394.467,98.248L438.067,80.875C438.836,80.569 440.728,79.4 441.246,78.755C441.383,78.621 441.511,78.478 441.63,78.328C445.738,73.115 437.556,59.814 423.356,48.616L423.356,48.617Z" style="fill:rgb(240,164,32);fill-rule:nonzero;"/>
        <path d="M441.625,78.33C445.736,73.115 437.557,59.812 423.356,48.617C409.155,37.422 394.31,32.574 390.199,37.789C386.088,43.004 394.267,56.307 408.468,67.502C422.669,78.697 437.514,83.545 441.625,78.33Z" style="fill:rgb(252,201,84);fill-rule:nonzero;"/>
        <path d="M439.146,75.293C442.519,71.013 435.088,59.529 422.547,49.643C410.006,39.756 397.104,35.211 393.731,39.49C390.357,43.77 397.788,55.254 410.329,65.14C422.87,75.027 435.772,79.573 439.146,75.293Z" style="fill:rgb(240,164,32);fill-rule:nonzero;"/>
        <path d="M409.17,92.39C403.864,92.416 399.539,89.76 394.297,85.628C388.197,80.818 384.146,75.06 383.826,71.781L382.097,81.902C382.897,84.79 385.624,88.451 389.579,91.569C392.869,94.163 396.188,95.944 399.629,96.191L409.17,92.389L409.17,92.39ZM403.862,74.02C393.698,66.006 387.095,56.81 387.281,51.55L385.596,61.413C385.726,66.111 391.216,73.703 399.026,79.86C406.024,85.377 413.316,89.26 418.9,88.513L428.379,84.735C420.742,85.263 412.684,80.977 403.862,74.02Z" style="fill:rgb(46,106,201);fill-rule:nonzero;"/>
        <path d="M424.902,53.722C424.924,53.722 424.946,53.722 424.968,53.722C427.375,53.722 429.355,51.742 429.355,49.335C429.355,46.929 427.375,44.948 424.968,44.948C424.946,44.948 424.924,44.949 424.902,44.949C422.521,44.985 420.581,46.954 420.581,49.335C420.581,51.717 422.521,53.686 424.902,53.722Z" style="fill:rgb(40,144,233);fill-rule:nonzero;"/>
        <path d="M448.56,45.187L448.592,45.151C448.632,45.108 448.706,45.029 448.813,44.921C449.029,44.705 449.376,44.373 449.85,43.973C451.168,42.869 452.609,41.921 454.144,41.147C457.895,39.249 463.48,37.7 470.805,39.389C471.106,39.459 471.415,39.494 471.724,39.494C473.967,39.494 475.814,37.647 475.814,35.404C475.814,33.506 474.492,31.845 472.643,31.419C463.161,29.233 455.622,31.232 450.45,33.851C448.35,34.911 446.379,36.209 444.577,37.721C444.036,38.175 443.515,38.653 443.016,39.153C442.822,39.348 442.633,39.547 442.449,39.751L442.405,39.801L442.389,39.819L442.382,39.827L442.379,39.83C442.378,39.832 442.376,39.834 445.476,42.5L442.376,39.834C441.758,40.57 441.419,41.502 441.419,42.463C441.419,44.706 443.266,46.553 445.509,46.553C446.674,46.553 447.784,46.056 448.56,45.187Z" style="fill:rgb(255,55,173);"/>
        <path d="M408.048,16.017C407.252,14.753 405.859,13.984 404.366,13.984C403.541,13.984 402.734,14.219 402.037,14.66C400.774,15.457 400.006,16.85 400.006,18.343C400.006,19.167 400.24,19.974 400.68,20.67C400.838,20.923 404.079,26.174 404.745,33.365C405.423,40.671 403.276,47.387 398.355,53.409C400.012,55.515 402.006,57.704 404.284,59.893C407.436,56.251 409.807,52.337 411.365,48.196C413.282,43.101 413.96,37.699 413.382,32.141C412.461,23.299 408.614,16.915 408.048,16.017Z" style="fill:rgb(255,55,173);fill-rule:nonzero;"/>
        <path d="M462.571,57.991C464.794,58.566 466.365,59.193 467.044,59.485C468.668,60.482 470.763,60.313 472.207,59.07C473.152,58.254 473.705,57.072 473.728,55.824C473.76,53.919 472.548,52.201 470.743,51.592C468.662,50.668 460.778,47.548 450.356,48.102C443.341,48.475 436.595,50.418 430.307,53.883C424.353,57.164 418.824,61.813 413.805,67.744C416.199,69.448 418.694,71.007 421.275,72.413C429.75,62.754 439.528,57.518 450.423,56.826C454.508,56.578 458.607,56.971 462.571,57.991Z" style="fill:rgb(40,144,233);fill-rule:nonzero;"/>
    </g>
</svg>
